exported-svg/twitter.svg

<svg height="24" viewBox="0 0 24 24" width="24" xmlns="http://www.w3.org/2000/svg"><path d="m15.2047906 3.32760838c-1.9523029.74515376-3.2317546 2.62989292-3.2037424 4.71937989l-.0000223.49444798c-3.22020015-.07056152-6.22865922-1.66685736-8.09084435-4.31850595-.22334718-.31803403-.70824836-.27084406-.86608403.08428621-.03205867.072132-.08467439.20123949-.1509043.38174845-.10859552.29597602-.21678178.63198983-.31756738 1.0025251-.57304217 2.10677271-.67314824 4.32166864.00713165 6.41228484.73376436 2.2549832 2.32032427 4.1212298 4.88315396 5.4620244-1.80282461 1.024116-3.86154353 1.5277547-5.94503583 1.4448815-.52619509-.02093-.72303479.6809386-.2626938.9366836 9.71624608 5.3979145 20.74282148-.4710692 20.74282148-11.93707865-.0007308-.2216461-.0160411-.44206597-.0457932-.66042021.9898908-1.04031425 1.6910888-2.32308365 2.0315946-3.72127075.1093148-.44886943-.3964844-.79318383-.7740046-.52689067-.8294899.58510121-1.7397114 1.04528915-2.7015145 1.36636009-1.3799112-1.38808925-3.4585801-1.84576689-5.306495-1.14045583zm5.8651263 3.49667402c-.1188327.11719152-.1713572.28594815-.140022.44987858.0464867.24319503.0702926.49018102.0711111.73777778-.0000025 9.98761924-8.9136709 15.37729704-17.48825507 11.90831444 1.8792888-.2417938 3.68578542-.9215442 5.26906732-1.9962732.32448793-.2202618.28063585-.7113193-.07774573-.8706-2.79921115-1.2440939-4.44899775-3.0420649-5.17039194-5.2590324-.61109065-1.8779859-.51946351-3.90528117.00688701-5.84039338.03916568-.1439915.07947392-.28211886.12041287-.41394253 2.17385996 2.60209344 5.42964385 4.0888728 8.85298344 4.00010605.2710027-.00702707.4870394-.22873812.4870394-.49983199v-1c-.0224322-1.67661381 1.0001015-3.18289129 2.5603756-3.77841578 1.5602742-.59552448 3.3263899-.15361701 4.4223473 1.10653468.1290609.14839651.3331282.20735201.5214435.15064621.7175278-.21606301 1.4108824-.50200624 2.0703037-.85307402-.3638418.80214932-.8730132 1.53449874-1.5055565 2.15830556z"/></svg>

<?xml version="1.0" encoding="UTF-8"?>
<svg width="24px" height="24px" viewBox="0 0 24 24" version="1.1" xmlns="http://www.w3.org/2000/svg" xmlns:xlink="http://www.w3.org/1999/xlink">
    <!-- Generator: Sketch 55.2 (78181) - https://sketchapp.com -->
    <title>twitter</title>
    <desc>Created with Sketch.</desc>
    <g id="twitter" stroke="none" stroke-width="1" fill="none" fill-rule="evenodd">
        <path d="M15.2047906,3.32760838 C13.2524877,4.07276214 11.973036,5.9575013 12.0010482,8.04698827 L12.0010259,8.54143625 C8.78082575,8.47087473 5.77236668,6.87457889 3.91018155,4.2229303 C3.68683437,3.90489627 3.20193319,3.95208624 3.04409752,4.30721651 C3.01203885,4.37934851 2.95942313,4.508456 2.89319322,4.68896496 C2.7845977,4.98494098 2.67641144,5.32095479 2.57562584,5.69149006 C2.00258367,7.79826277 1.9024776,10.0131587 2.58275749,12.1037749 C3.31652185,14.3587581 4.90308176,16.2250047 7.46591145,17.5657993 C5.66308684,18.5899153 3.60436792,19.093554 1.52087562,19.0106808 C0.994680528,18.9897508 0.79784083,19.6916194 1.25818182,19.9473644 C10.9744279,25.3452789 22.0010033,19.4762952 22.0010033,8.01028575 C22.0002725,7.78863965 21.9849622,7.56821978 21.9552101,7.34986554 C22.9451009,6.30955129 23.6462989,5.02678189 23.9868047,3.62859479 C24.0961195,3.17972536 23.5903203,2.83541096 23.2128001,3.10170412 C22.3833102,3.68680533 21.4730887,4.14699327 20.5112856,4.46806421 C19.1313744,3.07997496 17.0527055,2.62229732 15.2047906,3.32760838 Z M21.0699169,6.8242824 C20.9510842,6.94147392 20.8985597,7.11023055 20.9298949,7.27416098 C20.9763816,7.51735601 21.0001875,7.764342 21.001006,8.01193876 C21.0010035,17.999558 12.0873351,23.3892358 3.51275093,19.9202532 C5.39203973,19.6784594 7.19853635,18.998709 8.78181825,17.92398 C9.10630618,17.7037182 9.0624541,17.2126607 8.70407252,17.05338 C5.90486137,15.8092861 4.25507477,14.0113151 3.53368058,11.7943476 C2.92258993,9.9163617 3.01421707,7.88906643 3.54056759,5.95395422 C3.57973327,5.80996272 3.62004151,5.67183536 3.66098046,5.54001169 C5.83484042,8.14210513 9.09062431,9.62888449 12.5139639,9.54011774 C12.7849666,9.53309067 13.0010033,9.31137962 13.0010033,9.04028575 L13.0010033,8.04028575 C12.9785711,6.36367194 14.0011048,4.85739446 15.5613789,4.26186997 C17.1216531,3.66634549 18.8877688,4.10825296 19.9837262,5.36840465 C20.1127871,5.51680116 20.3168544,5.57575666 20.5051697,5.51905086 C21.2226975,5.30298785 21.9160521,5.01704462 22.5754734,4.66597684 C22.2116316,5.46812616 21.7024602,6.20047558 21.0699169,6.8242824 Z" id="Shape" fill="#000000" fill-rule="nonzero"></path>
    </g>
</svg>
